X:10
T:Anouk's Babblilting
C:F.Champs
%H:08.06.2012
M:4/4
Q:1/2=90
L:1/8
R:Reel
K:G
|:"D"Dddd dcAc | "G"BGGF GABG | "C"EGcG "G"DGBG | "D"FADd edcA
| "G"Bddd dcAc | "G"BGGF "C"EGcG | "G"DGBG "D"FADd |1 "D"edcA "G"G2FE :|2 "D"edcA "G"G2FG
|:"D"ADDD dDDD | "D"cedc AGFG | "D"ADDD cedc | "Am"AAAG ADFG
| "D"ADDD cedc | "G"BGGF "C"EGcG | "G"DGBG "D"FADd |1 "D"edcA "G"G2FG :|2 "D"edcA "G"G2FE ||

%|:Dddd dcAc | BGGF GABG | EGcG DGBG | FADd edcA
%| Bddd dcAc | BGGF EGcG | DGBG FADd | edcA |1 G2FE :|2 G2FG
%|:ADDD dDDD | cedc AGFG | ADDD cedc | AAAG ADFG
%| ADDD cedc | BGGF EGcG | DGBG FADd | edcA |1 G2FG :|2 G2FE

